X: 28684
T: Mutton Island
R: reel
M: 4/4
K: Dmixolydian
ag|:fde^c d2AB|cAGF ED^CE|DFAF GBde|fedf eaag|
fde^c d2AB|cAGF ED^CE|DFAF GBdg|fde^c d2ag:|
|:fd (3ddd Adfd|fage fdd=f|eccc Gccc|egfd ecce|
fddf Adfd|fage fdde|fage d^cAG|FDEF|D2 ag:|

